packages/icons/web/youtube_large.svg

<svg width="24" height="24" viewBox="0 0 24 24" fill="none" xmlns="http://www.w3.org/2000/svg">
<path fill-rule="evenodd" clip-rule="evenodd" d="M22.5403 6.42037C23 8.14712 23 11.75 23 11.75C23 11.75 23 15.3527 22.5403 17.0797C22.2873 18.0324 21.5419 18.7826 20.5952 19.0374C18.8796 19.5 12 19.5 12 19.5C12 19.5 5.12038 19.5 3.40475 19.0374C2.45825 18.7826 1.71275 18.0324 1.45975 17.0797C1 15.3527 1 11.75 1 11.75C1 11.75 1 8.14712 1.45975 6.42037C1.71275 5.46763 2.45825 4.71737 3.40475 4.46275C5.12038 4 12 4 12 4C12 4 18.8796 4 20.5952 4.46275C21.5419 4.71737 22.2873 5.46763 22.5403 6.42037ZM9.75 15.0211L15.5 11.7501L9.75 8.47887V15.0211Z" fill="#212933"/>
</svg>

<svg width="24" height="24" fill="none" xmlns="http://www.w3.org/2000/svg">
    <path fill-rule="evenodd" clip-rule="evenodd" d="M22.54 6.42c.46 1.727.46 5.33.46 5.33s0 3.603-.46 5.33a2.764 2.764 0 01-1.945 1.957C18.88 19.5 12 19.5 12 19.5s-6.88 0-8.595-.463A2.765 2.765 0 011.46 17.08C1 15.353 1 11.75 1 11.75s0-3.603.46-5.33a2.764 2.764 0 011.945-1.957C5.12 4 12 4 12 4s6.88 0 8.595.463A2.764 2.764 0 0122.54 6.42zM9.75 15.021l5.75-3.27-5.75-3.272v6.542z" fill="currentColor"/>
</svg>
